third_party/noto/noto_2/emoji_u1f684.svg

<svg enable-background="new 0 0 128 128" version="1.1" viewBox="0 0 128 128" xmlns="http://www.w3.org/2000/svg"><rect x="60.77" y="100.94" width="63.2" height="16.21" fill="#455A64"/><ellipse cx="93.63" cy="110.84" rx="13.12" ry="13.16" fill="#455A64"/><ellipse cx="93.63" cy="110.84" rx="8.76" ry="8.78" fill="#607D8B"/><path d="m90.51 110.84c0 1.73 1.4 3.13 3.12 3.13s3.12-1.4 3.12-3.13h-6.24z" fill="#455A64"/><path d="m20.07 97.68-10.01 16.51c-1.51 2.34 0.5 2.96 1.83 2.96h54.08c0.98 0 1.77-0.6 2.61-1.25 3.62-2.78 5.38-5.06 13.91-5.06h41.5v-13.16h-103.92z" fill="#0277BD"/><path d="m20.07 97.68-6.89 11.36s5.2-3.92 19.56-3.92h91.27v-7.44h-103.94z" fill="#004F84"/><path d="m105.67 8.94-75.26 46.01c-12.94 10.95-19.9 20.75-23.11 24.91-6.06 7.85 0.31 14.37 1.52 15.28s9.55 6.4 23.91 6.4h91.27v-97.54c-5.28 1.12-11.43 2.7-18.33 4.94z" fill="#E0E0E0"/><path d="m30.41 54.95 10.56-10.8c1.11-1.23 3.8-1.66 3.8-1.66l56.47-32.07 4.7-1.58c-1.61 8.53-9.44 20.55-33.44 32.27-20.25 9.9-42.09 13.84-42.09 13.84z" fill="#37474F"/><path d="m44.78 42.49s13.13-11.18 23.16-17.42c17.83-11.1 33.31-14.64 33.31-14.64-2.51 8.25-8.12 15.65-30.68 25.78-19.37 8.69-25.79 6.28-25.79 6.28z" fill="#BAE2FD"/><ellipse transform="matrix(.708 -.7062 .7062 .708 -39.915 39.105)" cx="27.33" cy="67.82" rx="8.04" ry="4.02" fill="#E2A610"/><path d="m33.34 62.54c-0.01-0.03-0.03-0.04-0.05-0.07-1.64 0-3.84 0.98-5.91 2.81-3.32 2.91-5.07 6.86-3.92 8.82 0.01 0.03 0.03 0.04 0.05 0.07 1.64 0 3.84-0.98 5.91-2.81 3.32-2.91 5.07-6.86 3.92-8.82z" fill="#FFCA28"/><path d="m94.02 68.83c-33.76 0-60.98 12.03-73.25 16.35-8 2.82-13.31 1.97-16.05 1.03-0.31 4.88 1.73 7.25 4 9.16 2.46 2.07 9.65 6.17 24.01 6.17h91.27v-32.71h-29.98z" fill="#0277BD"/><path d="m94.02 68.83c-33.76 0-60.98 12.03-73.25 16.35-8 2.82-13.31 1.97-16.05 1.03-0.15 2.4 0.27 4.19 1 5.62 2.92 0.69 10.11 1.34 17.38-0.68 19.17-5.34 35.88-11.91 69.64-11.91h31.27v-10.41h-29.99z" fill="#82AEC0"/></svg>

<?xml version="1.0" encoding="utf-8"?>
<!-- Generator: Adobe Illustrator 25.2.3, SVG Export Plug-In . SVG Version: 6.00 Build 0)  -->
<svg version="1.1" id="Layer_3" xmlns="http://www.w3.org/2000/svg" xmlns:xlink="http://www.w3.org/1999/xlink" x="0px" y="0px"
	 viewBox="0 0 128 128" style="enable-background:new 0 0 128 128;" xml:space="preserve">
<g>
	<rect x="60.77" y="100.94" style="fill:#455A64;" width="63.2" height="16.21"/>
	<g>
		<ellipse style="fill:#455A64;" cx="93.63" cy="110.84" rx="13.12" ry="13.16"/>
		<ellipse style="fill:#607D8B;" cx="93.63" cy="110.84" rx="8.76" ry="8.78"/>
		<path style="fill:#455A64;" d="M90.51,110.84c0,1.73,1.4,3.13,3.12,3.13s3.12-1.4,3.12-3.13H90.51z"/>
	</g>
	<path style="fill:#0277BD;" d="M20.07,97.68l-10.01,16.51c-1.51,2.34,0.5,2.96,1.83,2.96h54.08c0.98,0,1.77-0.6,2.61-1.25
		c3.62-2.78,5.38-5.06,13.91-5.06c5.3,0,27.28,0,41.5,0V97.68L20.07,97.68z"/>
	<path style="fill:#004F84;" d="M20.07,97.68l-6.89,11.36c0,0,5.2-3.92,19.56-3.92c14.17,0,62.69,0,91.27,0v-7.44L20.07,97.68z"/>
	<g>
		<path style="fill:#E0E0E0;" d="M105.67,8.94L30.41,54.95C17.47,65.9,10.51,75.7,7.3,79.86c-6.06,7.85,0.31,14.37,1.52,15.28
			c1.21,0.91,9.55,6.4,23.91,6.4c14.17,0,62.69,0,91.27,0V4C118.72,5.12,112.57,6.7,105.67,8.94z"/>
	</g>
	<path style="fill:#37474F;" d="M30.41,54.95l10.56-10.8c1.11-1.23,3.8-1.66,3.8-1.66l0,0l56.47-32.07l4.7-1.58
		c-1.61,8.53-9.44,20.55-33.44,32.27C52.25,51.01,30.41,54.95,30.41,54.95z"/>
	<g>
		<path style="fill:#BAE2FD;" d="M44.78,42.49c0,0,13.13-11.18,23.16-17.42c17.83-11.1,33.31-14.64,33.31-14.64
			c-2.51,8.25-8.12,15.65-30.68,25.78C51.2,44.9,44.78,42.49,44.78,42.49z"/>
	</g>
	
		<ellipse transform="matrix(0.708 -0.7062 0.7062 0.708 -39.915 39.1054)" style="fill:#E2A610;" cx="27.33" cy="67.82" rx="8.04" ry="4.02"/>
	<path style="fill:#FFCA28;" d="M33.34,62.54c-0.01-0.03-0.03-0.04-0.05-0.07c-1.64,0-3.84,0.98-5.91,2.81
		c-3.32,2.91-5.07,6.86-3.92,8.82c0.01,0.03,0.03,0.04,0.05,0.07c1.64,0,3.84-0.98,5.91-2.81C32.74,68.45,34.49,64.5,33.34,62.54z"
		/>
	<path style="fill:#0277BD;" d="M94.02,68.83c-33.76,0-60.98,12.03-73.25,16.35C12.77,88,7.46,87.15,4.72,86.21
		c-0.31,4.88,1.73,7.25,4,9.16c2.46,2.07,9.65,6.17,24.01,6.17c14.17,0,62.69,0,91.27,0V68.83
		C113.99,68.83,102.81,68.83,94.02,68.83z"/>
	<g>
		<path style="fill:#82AEC0;" d="M94.02,68.83c-33.76,0-60.98,12.03-73.25,16.35C12.77,88,7.46,87.15,4.72,86.21
			c-0.15,2.4,0.27,4.19,1,5.62c2.92,0.69,10.11,1.34,17.38-0.68c19.17-5.34,35.88-11.91,69.64-11.91c8.18,0,20.11,0,31.27,0V68.83
			C113.99,68.83,102.81,68.83,94.02,68.83z"/>
	</g>
</g>
</svg>
